dist/svg/exchange.svg

<svg width="16" height="16" viewBox="0 0 16 16" fill="rgb(34, 34, 34)" xmlns="http://www.w3.org/2000/svg"><title>exchange</title><path d="M12 6H0.00100708V4H12V2L16 5L12 8V6ZM3.99701 8L0.00100708 11L3.99701 14V12H16V10H3.99701V8Z" fill="rgb(34, 34, 34)" fill-opacity="1.00"/></svg>

<!-- Generated by Trend Micro Style Portal -->
<svg version="1.1" xmlns="http://www.w3.org/2000/svg" width="16" height="16" viewBox="0 0 16 16">
  <title>exchange</title>
  <path fill="rgb(34,34,34)" d="M12 6h-11.999v-2h11.999v-2l4 3-4 3zM3.997 8l-3.996 3 3.996 3v-2h12.003v-2h-12.003z"></path>
</svg>
